X:31
M:2/4
L:1/8
K:A
c2 "tr"BA | a2 "tr"gf | ecBA | GABG | E2 (3ABc | B2 (3Bcd | cAac | "tr"c2B2 | c2 "tr"BA | a2 "tr"gf | ecBA |

